brandFactory_export/2.Regular/Wifi hogar home casa_2Regular.svg

<?xml version="1.0" encoding="UTF-8"?>
<svg width="24px" height="24px" viewBox="0 0 24 24" version="1.1" xmlns="http://www.w3.org/2000/svg" xmlns:xlink="http://www.w3.org/1999/xlink">
    <title>2.Regular/Wifi hogar home casa_2Regular</title>
    <g id="Symbols" stroke="none" stroke-width="1" fill="none" fill-rule="evenodd">
        <g id="2.Regular/Wifi-hogar-home-casa_2Regular" fill="#5CB615" fill-rule="nonzero">
            <path d="M22.0840336,11.5932773 C22.1344538,11.4823529 22.1546218,11.3142857 21.9798319,11.1428571 L12.2823529,1.6 C12.1647059,1.48571429 11.9932773,1.41848739 11.8117647,1.41848739 C11.6302521,1.41848739 11.4554622,1.48571429 11.3411765,1.6 L1.64369748,11.1428571 C1.46890756,11.3142857 1.49243697,11.4823529 1.5394958,11.5932773 C1.61008403,11.7512605 1.79495798,11.9226891 2.11428571,11.9226891 L3.33109244,11.9226891 C3.74453782,11.9226891 4.08403361,12.2487395 4.08403361,12.6487395 L4.08403361,21.6907563 C4.08403361,21.9563025 4.35630252,22.1714286 4.69243697,22.1714286 L18.8033613,22.1714286 C19.1361345,22.1714286 19.4084034,21.9563025 19.4084034,21.6907563 L19.4084034,12.6487395 C19.4084034,12.2487395 19.7445378,11.9226891 20.1613445,11.9226891 L21.5159664,11.9226891 C21.8285714,11.9226891 22.0168067,11.7546218 22.0840336,11.5932773 L22.0840336,11.5932773 Z M23.0554622,10.1277311 C23.6168067,10.6789916 23.7747899,11.4554622 23.4722689,12.1579832 C23.1495798,12.897479 22.3798319,13.3747899 21.512605,13.3747899 L20.907563,13.3747899 L20.907563,21.6941176 C20.907563,22.7596639 19.9630252,23.6268908 18.8,23.6268908 L4.68907563,23.6268908 C3.52605042,23.6268908 2.57815126,22.7596639 2.57815126,21.6941176 L2.57815126,13.3747899 L2.11092437,13.3747899 C1.24369748,13.3747899 0.47394958,12.897479 0.151260504,12.1579832 C-0.151260504,11.4588235 0.00672268908,10.6823529 0.568067227,10.1277311 L10.2689076,0.58487395 C11.0621849,-0.194957983 12.5613445,-0.194957983 13.3579832,0.58487395 L23.0554622,10.1277311 Z M11.7714286,18.7764706 C12.2689076,18.7697479 12.2689076,18.5008403 12.2689076,18.3394958 C12.2689076,18.1781513 12.2689076,17.9092437 11.8420168,17.8991597 L11.7613445,17.8991597 C11.3882353,17.902521 11.3579832,18.1142857 11.3579832,18.3361345 C11.3579832,18.507563 11.3579832,18.7731092 11.7714286,18.7764706 L11.7714286,18.7764706 Z M11.8151261,16.6420168 C12.7159664,16.6655462 13.5697479,17.1966387 13.5697479,18.3394958 C13.5697479,19.4890756 12.7193277,20.0168067 11.8756303,20.0336134 L11.7546218,20.0336134 C10.9109244,20.0235294 10.0571429,19.492437 10.0571429,18.3327731 C10.0571429,17.1731092 10.907563,16.6453782 11.7512605,16.6386555 C11.7512605,16.6420168 11.8117647,16.6420168 11.8151261,16.6420168 L11.8151261,16.6420168 Z M11.7445378,8.06386555 C11.8722689,8.05042017 15.989916,7.85210084 18.7563025,10.8403361 C19.0319328,11.1394958 19.005042,11.5966387 18.6957983,11.8655462 C18.5512605,11.989916 18.3731092,12.0504202 18.194958,12.0504202 C17.989916,12.0504202 17.7815126,11.9697479 17.6336134,11.8084034 C15.3579832,9.3512605 11.8319328,9.5092437 11.7915966,9.51260504 C7.99327731,9.55294118 5.99663866,11.6336134 5.97647059,11.6537815 C5.69747899,11.9495798 5.22352941,11.9697479 4.91428571,11.7042017 C4.60504202,11.4352941 4.58151261,10.9781513 4.8605042,10.6789916 C4.96470588,10.5747899 7.33109244,8.11092437 11.7445378,8.06386555 L11.7445378,8.06386555 Z M11.7512605,10.8907563 C11.8655462,10.8806723 15.1495798,10.7764706 17.2436975,13.0386555 C17.5193277,13.3378151 17.492437,13.794958 17.1831933,14.0638655 C16.8705882,14.3294118 16.4,14.3058824 16.1210084,14.0067227 C14.5109244,12.2655462 11.8218487,12.3428571 11.7882353,12.3428571 C9.11260504,12.3731092 7.51260504,14.0268908 7.49579832,14.0436975 C7.34789916,14.2016807 7.14285714,14.2789916 6.93781513,14.2789916 C6.75966387,14.2789916 6.57815126,14.2184874 6.43361345,14.0907563 C6.12773109,13.8218487 6.10084034,13.3680672 6.37983193,13.0689076 C6.46386555,12.9781513 8.41680672,10.9243697 11.7512605,10.8907563 Z M11.7714286,13.7781513 C11.8420168,13.7781513 14.0403361,13.697479 15.4554622,15.2235294 C15.7310924,15.5226891 15.7042017,15.9798319 15.394958,16.2487395 C15.0857143,16.5142857 14.6117647,16.4907563 14.3327731,16.1915966 C13.4084034,15.189916 11.8319328,15.2302521 11.8117647,15.2268908 C10.2352941,15.2436975 9.32436975,16.1747899 9.28739496,16.2151261 C9.1394958,16.3697479 8.93445378,16.4504202 8.73277311,16.4504202 C8.5512605,16.4504202 8.3697479,16.3865546 8.22521008,16.2621849 C7.91932773,15.9932773 7.89579832,15.5394958 8.17142857,15.2436975 C8.22857143,15.1831933 9.54285714,13.8016807 11.7714286,13.7781513 L11.7714286,13.7781513 Z" id="Wifi-hogar-home-casa_2Regular"></path>
        </g>
    </g>
</svg>

<svg width="24" height="24" viewBox="0 0 24 24" xmlns="http://www.w3.org/2000/svg"><path d="M22.084 11.593c.05-.11.07-.279-.104-.45L12.282 1.6a.678.678 0 00-.47-.182.672.672 0 00-.47.182l-9.698 9.543c-.175.171-.152.34-.105.45.071.158.256.33.575.33h1.217c.414 0 .753.326.753.726v9.042c0 .265.272.48.608.48h14.111c.333 0 .605-.215.605-.48v-9.042c0-.4.337-.726.753-.726h1.355c.313 0 .5-.168.568-.33zm.971-1.465c.562.551.72 1.327.417 2.03-.322.74-1.092 1.217-1.96 1.217h-.604v8.32c0 1.065-.945 1.932-2.108 1.932H4.69c-1.164 0-2.112-.867-2.112-1.933v-8.32h-.467c-.867 0-1.637-.477-1.96-1.216-.302-.7-.144-1.476.417-2.03l9.7-9.543c.794-.78 2.293-.78 3.09 0l9.697 9.543zm-11.284 8.648c.498-.006.498-.275.498-.437 0-.16 0-.43-.427-.44h-.08c-.374.004-.404.215-.404.437 0 .172 0 .437.413.44zm.044-2.134c.901.024 1.755.555 1.755 1.697 0 1.15-.85 1.678-1.694 1.695h-.121c-.844-.01-1.698-.542-1.698-1.701 0-1.16.85-1.688 1.694-1.694 0 .003.06.003.064.003zm-.07-8.578c.127-.014 4.245-.212 7.011 2.776a.71.71 0 01-.06 1.026.764.764 0 01-.501.184.761.761 0 01-.561-.242c-2.276-2.457-5.802-2.299-5.842-2.295-3.799.04-5.795 2.12-5.816 2.14a.776.776 0 01-1.062.051.707.707 0 01-.053-1.025c.104-.104 2.47-2.568 6.884-2.615zm.006 2.827c.115-.01 3.399-.115 5.493 2.148a.71.71 0 01-.06 1.025.773.773 0 01-1.063-.057c-1.61-1.741-4.3-1.664-4.333-1.664-2.675.03-4.275 1.684-4.292 1.7a.76.76 0 01-.558.236.76.76 0 01-.504-.188.706.706 0 01-.054-1.022c.084-.09 2.037-2.145 5.371-2.178zm.02 2.887c.071 0 2.27-.08 3.684 1.446a.71.71 0 01-.06 1.025.773.773 0 01-1.062-.057c-.925-1.002-2.501-.962-2.521-.965-1.577.017-2.488.948-2.525.988a.771.771 0 01-1.062.047.705.705 0 01-.054-1.018c.058-.06 1.372-1.442 3.6-1.466z" fill="#5CB615" fill-rule="nonzero"/></svg>
